icon-themes/breeze_svg/cmd/lc_wrapoff.svg

<svg viewBox="0 0 24 24" xmlns="http://www.w3.org/2000/svg"><path d="m4 4v1h16v-1zm0 15v1h16v-1z" fill="#4d4d4d"/><path d="m7 7v10h10v-10z" fill="#1d99f3"/></svg>

<svg xmlns="http://www.w3.org/2000/svg" viewBox="0 0 24 24">
 <path 
     style="fill:#4d4d4d" 
     d="M 4 4 L 4 5 L 20 5 L 20 4 L 4 4 z M 4 19 L 4 20 L 20 20 L 20 19 L 4 19 z "
     />
 <path 
     style="fill:#1d99f3" 
     d="M 7 7 L 7 17 L 17 17 L 17 7 L 7 7 z "
     />
 </svg>
